dist/images/svg/sprite/icon-vk.svg

<svg width="25" height="24" viewBox="0 0 25 24" fill="none" xmlns="http://www.w3.org/2000/svg">
<g clip-path="url(#clip0_22_1455)">
<path opacity="0.6" d="M24.5 21.3333V2.66667C24.5 1.2 23.296 0 21.8267 0H3.17333C1.64 0 0.5 1.13733 0.5 2.66667V21.3333C0.5 22.864 1.64 24 3.17333 24H21.8267C22.5342 23.9989 23.2126 23.7179 23.7135 23.2182C24.2144 22.7185 24.4972 22.0409 24.5 21.3333ZM19.412 14.1427C19.412 14.1427 20.9213 15.632 21.2933 16.3227C21.304 16.3373 21.308 16.3507 21.312 16.356C21.4627 16.6093 21.5013 16.8093 21.4253 16.956C21.3 17.2 20.8733 17.3227 20.728 17.3333H18.0627C17.876 17.3333 17.4893 17.2853 17.02 16.9613C16.66 16.7107 16.304 16.296 15.9573 15.892C15.44 15.292 14.992 14.772 14.5413 14.772C14.4842 14.7719 14.4274 14.7813 14.3733 14.8C14.0307 14.9093 13.596 15.396 13.596 16.696C13.596 17.1027 13.276 17.3347 13.0493 17.3347H11.828C11.412 17.3347 9.24533 17.1893 7.32667 15.164C4.972 12.684 2.85733 7.70933 2.83867 7.66533C2.70533 7.344 2.98133 7.16933 3.28133 7.16933H5.97467C6.336 7.16933 6.452 7.388 6.53467 7.584C6.628 7.80667 6.98 8.70533 7.556 9.716C8.49333 11.36 9.07067 12.0293 9.53067 12.0293C9.61668 12.0288 9.70114 12.0064 9.776 11.964C10.3773 11.632 10.2653 9.488 10.2387 9.04533C10.2387 8.96133 10.2373 8.08667 9.93067 7.66667C9.70933 7.36267 9.33467 7.24667 9.108 7.20267C9.20043 7.07531 9.32205 6.97197 9.46267 6.90133C9.87467 6.696 10.6173 6.66667 11.356 6.66667H11.7667C12.568 6.67733 12.776 6.72933 13.0653 6.80267C13.6507 6.94267 13.6627 7.32267 13.6107 8.616C13.596 8.984 13.58 9.40133 13.58 9.89067C13.58 9.996 13.576 10.112 13.576 10.232C13.5573 10.8933 13.536 11.6413 14.0027 11.948C14.0631 11.9858 14.1328 12.0061 14.204 12.0067C14.3667 12.0067 14.8533 12.0067 16.172 9.744C16.752 8.74533 17.1987 7.56667 17.2293 7.47867C17.2759 7.38352 17.3434 7.30012 17.4267 7.23467C17.495 7.19919 17.571 7.18132 17.648 7.18267H20.8147C21.1613 7.18267 21.396 7.23467 21.44 7.36667C21.516 7.57867 21.4253 8.22533 19.9787 10.18L19.3347 11.0333C18.0227 12.7507 18.0227 12.8387 19.412 14.1427Z" fill="white"/>
</g>
<defs>
<clipPath id="clip0_22_1455">
<rect width="24" height="24" fill="white" transform="translate(0.5)"/>
</clipPath>
</defs>
</svg>

<svg width="25" height="24" fill="none" xmlns="http://www.w3.org/2000/svg"><g clip-path="url(#a)"><path opacity=".6" d="M24.5 21.333V2.667A2.678 2.678 0 0 0 21.827 0H3.173C1.64 0 .5 1.137.5 2.667v18.666C.5 22.864 1.64 24 3.173 24h18.654a2.677 2.677 0 0 0 2.673-2.667Zm-5.088-7.19s1.51 1.489 1.881 2.18c.011.014.015.028.019.033.15.253.19.453.113.6-.125.244-.552.367-.697.377h-2.665c-.187 0-.574-.048-1.043-.372-.36-.25-.716-.665-1.063-1.069-.517-.6-.965-1.12-1.416-1.12a.511.511 0 0 0-.168.028c-.342.11-.777.596-.777 1.896 0 .407-.32.639-.547.639h-1.221c-.416 0-2.583-.146-4.501-2.171-2.355-2.48-4.47-7.455-4.488-7.499-.134-.321.142-.496.442-.496h2.694c.361 0 .477.219.56.415.093.223.445 1.121 1.021 2.132.937 1.644 1.515 2.313 1.975 2.313.086 0 .17-.023.245-.065.601-.332.49-2.476.463-2.919 0-.084-.002-.958-.308-1.378-.222-.304-.596-.42-.823-.464a.984.984 0 0 1 .355-.302c.412-.205 1.154-.234 1.893-.234h.41c.802.01 1.01.062 1.3.136.585.14.597.52.545 1.813-.015.368-.031.785-.031 1.275 0 .105-.004.221-.004.341-.019.661-.04 1.41.427 1.716.06.038.13.058.201.059.163 0 .65 0 1.968-2.263a16.65 16.65 0 0 0 1.057-2.265.704.704 0 0 1 .198-.244.462.462 0 0 1 .221-.052h3.167c.346 0 .581.052.625.184.076.212-.015.858-1.461 2.813l-.644.853c-1.312 1.718-1.312 1.806.077 3.11Z" fill="#fff"/></g><defs><clipPath id="a"><path fill="#fff" transform="translate(.5)" d="M0 0h24v24H0z"/></clipPath></defs></svg>
